magazine-rifle.svg

<svg fill="currentColor" viewBox="0 0 24 24"><path d="M7 1v2h1v10l-3 6 9 4 4-10V3h1V1m-9 2h6v2h-4.12v8.45L9.6 18.14 8 17.5l2-4Z"/></svg>

<svg  viewBox="0 0 24 24" fill="currentColor"><path  d="M7 1V3H8V13L5 19L14 23L18 13V3H19V1M10 3H16V5H11.88V13.45L9.6 18.14L8 17.5L10 13.5Z"/></svg>
